icons/svg/seamark_big/small_craft_facility_slipway.svg

<?xml version="1.0" encoding="UTF-8" standalone="no"?>
<svg
   xmlns:dc="http://purl.org/dc/elements/1.1/"
   xmlns:cc="http://creativecommons.org/ns#"
   xmlns:rdf="http://www.w3.org/1999/02/22-rdf-syntax-ns#"
   xmlns:svg="http://www.w3.org/2000/svg"
   xmlns="http://www.w3.org/2000/svg"
   xmlns:sodipodi="http://sodipodi.sourceforge.net/DTD/sodipodi-0.dtd"
   xmlns:inkscape="http://www.inkscape.org/namespaces/inkscape"
   width="1060"
   height="1060"
   id="svg2"
   version="1.1"
   inkscape:version="0.48.4 r9939"
   sodipodi:docname="small_craft_facility_shield.svg">
  <defs
     id="defs13">
    <inkscape:path-effect
       effect="gears"
       id="path-effect3774"
       is_visible="true"
       teeth="6"
       phi="-1.2" />
    <inkscape:path-effect
       effect="bend_path"
       id="path-effect3772"
       is_visible="false"
       bendpath="m 95.790098,316.51174 c 144.429032,-206.42506 223.313032,-11.7428 339.548092,0"
       prop_scale="1.19"
       scale_y_rel="false"
       vertical="false"
       bendpath-nodetypes="cc" />
  </defs>
  <sodipodi:namedview
     pagecolor="#ffffff"
     bordercolor="#666666"
     borderopacity="1"
     objecttolerance="10"
     gridtolerance="10"
     guidetolerance="10"
     inkscape:pageopacity="0"
     inkscape:pageshadow="2"
     inkscape:window-width="1920"
     inkscape:window-height="1004"
     id="namedview11"
     showgrid="false"
     inkscape:zoom="0.8137931"
     inkscape:cx="673.72752"
     inkscape:cy="572.87753"
     inkscape:window-x="1680"
     inkscape:window-y="0"
     inkscape:window-maximized="1"
     inkscape:current-layer="svg2"
     inkscape:snap-object-midpoints="true"
     inkscape:snap-center="true"
     inkscape:snap-global="false">
    <inkscape:grid
       type="xygrid"
       id="grid2989" />
  </sodipodi:namedview>
  <metadata
     id="metadata2975">image/svg+xmlen<rdf:RDF>
  <cc:Work
     rdf:about="">
    <dc:format>image/svg+xml</dc:format>
    <dc:type
       rdf:resource="http://purl.org/dc/dcmitype/StillImage" />
    <dc:title></dc:title>
  </cc:Work>
</rdf:RDF>
</metadata>
  <path
     style="fill:#930093;fill-opacity:1;color:#000000;fill-rule:nonzero;stroke:none;stroke-width:10;marker:none;visibility:visible;display:inline;overflow:visible;enable-background:accumulate"
     inkscape:connector-curvature="0"
     id="path5679"
     d="m 434.15043,430.36645 55.47607,15.10255 30.80521,-21.37028 10.70182,2.5671 -30.50517,21.43697 168.1285,46.10782 -12.30209,45.14096 -168.76194,-46.00778 C 422.3151,473.90716 434.21712,430.29977 434.21712,430.29977" />
  <path
     style="fill:#930093;fill-opacity:1;color:#000000;fill-rule:nonzero;stroke:none;stroke-width:10;marker:none;visibility:visible;display:inline;overflow:visible;enable-background:accumulate"
     inkscape:connector-curvature="0"
     id="path5681"
     d="m 579.97514,545.81934 c -0.20004,-3.7673 -0.90016,-7.36791 -2.13369,-10.76848 l 76.07957,21.20359 -2.43375,9.33492 -71.51213,-19.77003 z" />
  <path
     style="fill:#930093;fill-opacity:1;color:#000000;fill-rule:nonzero;stroke:none;stroke-width:10;marker:none;visibility:visible;display:inline;overflow:visible;enable-background:accumulate"
     inkscape:connector-curvature="0"
     id="path5683"
     d="m 510.89676,526.71612 c 2.06702,-3.00053 4.50077,-5.70098 7.26791,-8.00136 L 391.24314,483.67548 v 10.06837 l 119.65362,32.97227 z" />
  <path
     style="fill:#930093;fill-opacity:1;color:#000000;fill-rule:nonzero;stroke:none;stroke-width:10;marker:none;visibility:visible;display:inline;overflow:visible;enable-background:accumulate"
     inkscape:connector-curvature="0"
     id="path5685"
     d="m 542.26874,560.08842 c 6.8345,0 12.36876,-5.50091 12.36876,-12.33541 0,-6.83448 -5.53426,-12.36876 -12.36876,-12.36876 -6.83448,0 -12.36874,5.53428 -12.36874,12.36876 0,6.8345 5.53426,12.33541 12.36874,12.33541 z m 123.88767,75.81286 c -6.03435,0 -11.76865,-1.3669 -16.86952,-3.6673 -5.3009,-2.43373 -11.23525,-3.8673 -17.43629,-3.8673 -6.20105,0 -12.13541,1.43357 -17.36963,3.8673 -5.16754,2.3004 -10.90182,3.6673 -16.9362,3.6673 -6.03436,0 -11.76866,-1.3669 -16.93618,-3.6673 -5.26757,-2.43373 -11.20191,-3.8673 -17.36961,-3.8673 -6.2344,0 -12.1354,1.43357 -17.43631,3.8673 -5.10085,2.3004 -10.90184,3.6673 -16.90285,3.6673 -6.00102,0 -11.76866,-1.3669 -16.90288,-3.6673 -5.30089,-2.43373 -11.26856,-3.8673 -17.43628,-3.8673 -6.16771,0 -12.13539,1.43357 -17.36959,3.8673 -5.13422,2.3004 -10.93519,3.6673 -16.9362,3.6673 -6.00102,0 -11.76866,-1.3669 -16.93621,-3.6673 -5.23421,-2.43373 -11.20188,-3.8673 -17.36961,-3.8673 -6.1677,0 -12.13537,1.43357 -17.40295,3.8673 -5.13422,2.3004 -10.93519,3.6673 -16.90286,3.6673 l -0.40008,-100.75042 138.79019,38.23983 c -9.5683,-4.63412 -16.20276,-14.33578 -16.20276,-25.63768 0,-15.76933 12.76884,-28.50482 28.50482,-28.50482 15.73602,0 28.50484,12.76882 28.50484,28.50482 0,15.736 -12.80216,28.50484 -28.50484,28.50484 -0.93347,0 -1.90032,-0.20004 -2.80046,-0.30006 l 126.48812,34.87256 0.13338,25.07093 z" />
</svg>

<svg width="1060" height="1060" viewBox="0 0 1060 1060" fill="none" xmlns="http://www.w3.org/2000/svg">
<path d="M434.15 430.366L489.626 445.469L520.432 424.099L531.133 426.666L500.628 448.103L668.757 494.211L656.455 539.351L487.693 493.344C422.315 473.907 434.217 430.3 434.217 430.3" fill="#930093"/>
<path d="M579.975 545.819C579.775 542.052 579.075 538.451 577.841 535.051L653.921 556.254L651.487 565.589L579.975 545.819Z" fill="#930093"/>
<path d="M510.897 526.716C512.964 523.715 515.398 521.015 518.165 518.715L391.243 483.675V493.744L510.897 526.716Z" fill="#930093"/>
<path d="M542.269 560.088C549.103 560.088 554.638 554.587 554.638 547.753C554.638 540.918 549.103 535.384 542.269 535.384C535.434 535.384 529.9 540.918 529.9 547.753C529.9 554.587 535.434 560.088 542.269 560.088ZM666.156 635.901C660.122 635.901 654.388 634.534 649.287 632.234C643.986 629.8 638.052 628.367 631.851 628.367C625.65 628.367 619.715 629.8 614.481 632.234C609.313 634.534 603.579 635.901 597.545 635.901C591.51 635.901 585.776 634.534 580.609 632.234C575.341 629.8 569.407 628.367 563.239 628.367C557.005 628.367 551.104 629.8 545.803 632.234C540.702 634.534 534.901 635.901 528.9 635.901C522.899 635.901 517.131 634.534 511.997 632.234C506.696 629.8 500.728 628.367 494.561 628.367C488.393 628.367 482.425 629.8 477.191 632.234C472.057 634.534 466.256 635.901 460.255 635.901C454.254 635.901 448.486 634.534 443.319 632.234C438.084 629.8 432.117 628.367 425.949 628.367C419.781 628.367 413.814 629.8 408.546 632.234C403.412 634.534 397.611 635.901 391.643 635.901L391.243 535.151L530.033 573.391C520.465 568.756 513.831 559.055 513.831 547.753C513.831 531.984 526.599 519.248 542.335 519.248C558.071 519.248 570.84 532.017 570.84 547.753C570.84 563.489 558.038 576.258 542.335 576.258C541.402 576.258 540.435 576.058 539.535 575.958L666.023 610.83L666.156 635.901V635.901Z" fill="#930093"/>
</svg>
